svgs/light/cloud-question.svg

<svg xmlns="http://www.w3.org/2000/svg" viewBox="0 0 640 512"><!--! Font Awesome Pro 6.4.2 by @fontawesome - https://fontawesome.com License - https://fontawesome.com/license (Commercial License) Copyright 2023 Fonticons, Inc. --><path d="M389.8 125.2C363.7 88.1 320.7 64 272 64c-77.4 0-140.5 61-143.9 137.5c-.6 13-9 24.4-21.3 28.8C63.2 245.7 32 287.2 32 336c0 61.9 50.1 112 112 112H512c53 0 96-43 96-96c0-36.8-20.7-68.8-51.2-84.9c-13.4-7.1-20-22.5-15.8-37.1c2-6.9 3-14.3 3-22c0-44.2-35.8-80-80-80c-12.3 0-23.9 2.8-34.3 7.7c-14.1 6.7-30.9 2.3-39.9-10.5zM272 32c59.5 0 112.1 29.5 144 74.8C430.5 99.9 446.8 96 464 96c61.9 0 112 50.1 112 112c0 10.7-1.5 21-4.3 30.8C612.3 260.2 640 302.9 640 352c0 70.7-57.3 128-128 128H144C64.5 480 0 415.5 0 336c0-62.8 40.2-116.1 96.2-135.9C100.3 106.6 177.4 32 272 32zM232.7 201.8c6.5-24.6 28.7-41.8 54.2-41.8H344c35.5 0 64 29 64 64.3c0 24-13.4 46.2-34.9 57.2L336 300.3V320c0 8.8-7.2 16-16 16s-16-7.2-16-16V290.5c0-6 3.4-11.5 8.7-14.3l45.8-23.4c10.7-5.4 17.5-16.6 17.5-28.7c0-17.8-14.4-32.3-32-32.3H286.9c-10.9 0-20.5 7.4-23.2 17.9l-.2 .7c-2.2 8.5-11 13.7-19.5 11.4s-13.7-11-11.4-19.5l.2-.7zM296 384a24 24 0 1 1 48 0 24 24 0 1 1 -48 0z"/></svg>

<svg xmlns="http://www.w3.org/2000/svg" viewBox="0 0 640 512"><!--! Font Awesome Pro 6.1.1 by @fontawesome - https://fontawesome.com License - https://fontawesome.com/license (Commercial License) Copyright 2022 Fonticons, Inc. --><path d="M232.7 201.8C239.2 177.2 261.4 160 286.9 160H344C379.5 160 408 189 408 224.3C408 248.3 394.6 270.5 373.1 281.4L336 300.3V320C336 328.8 328.8 336 320 336C311.2 336 304 328.8 304 320V290.5C304 284.5 307.4 279 312.7 276.3L358.5 252.9C369.2 247.5 376 236.3 376 224.3C376 206.5 361.6 192 344 192H286.9C275.1 192 266.4 199.4 263.7 209.9L263.5 210.6C261.2 219.1 252.5 224.3 243.9 222C235.4 219.8 230.3 211 232.5 202.5L232.7 201.8zM344 384C344 397.3 333.3 408 320 408C306.7 408 296 397.3 296 384C296 370.7 306.7 360 320 360C333.3 360 344 370.7 344 384zM272 32C331.5 32 384.1 61.55 416 106.8C430.5 99.87 446.8 96 464 96C525.9 96 576 146.1 576 208C576 218.7 574.5 228.1 571.7 238.8C612.3 260.2 640 302.9 640 352C640 422.7 582.7 480 512 480H144C64.47 480 0 415.5 0 336C0 273.2 40.15 219.9 96.17 200.1C100.3 106.6 177.4 32 272 32zM272 64C194.6 64 131.5 125 128.1 201.5C127.6 214.6 119.1 225.1 106.8 230.3C63.18 245.7 32 287.2 32 336C32 397.9 82.14 448 144 448H512C565 448 608 405 608 352C608 315.2 587.3 283.2 556.8 267.1C543.4 259.1 536.8 244.5 540.9 229.1C542.9 223 544 215.7 544 208C544 163.8 508.2 128 464 128C451.7 128 440.1 130.8 429.7 135.7C415.7 142.4 398.8 137.9 389.8 125.2C363.7 88.12 320.7 64 272 64V64z"/></svg>
